X: 55
T: THANKSGIVING
B: O'Neill's 55
M:  2/4
L: 1/8
Z: 1999 by John Chambers <jc@trillian.mit.edu>
N: "Tenderly"
N: "Collected by J.O'Neill"
K:G
(g>f) \
|ed BA|GE DE|G2 GA|G2 GA \
|Bc de|dB AG|A2 AB|A2 gf|
|ed BA|GE DE|Gg fe|d3 e  \
|dB AG|E2 GFD|G4-|G2||GA|
|B2 d2|ef age|d/g/z B/d/z|G3 A \
|B2 d2|e/g/z f/a/z|g4-|g2 ga|
|ba gf|e2 ge|dB GB|A2 Bc \
|dB AG|E2 GFD|G4-|G2||
